svgs/thin/list-music.svg

<svg xmlns="http://www.w3.org/2000/svg" viewBox="0 0 512 512"><!--! Font Awesome Pro 6.3.0 by @fontawesome - https://fontawesome.com License - https://fontawesome.com/license (Commercial License) Copyright 2023 Fonticons, Inc. --><path d="M8 232h272c4.406 0 8-3.585 8-7.991S284.4 216 280 216h-272C3.594 216 0 219.6 0 223.1S3.594 232 8 232zM8 104h272c4.406 0 8-3.607 8-8.013S284.4 88 280 88h-272C3.594 88 0 91.56 0 95.97S3.594 104 8 104zM152 344h-144C3.594 344 0 347.6 0 351.1S3.594 360 8 360h144c4.406 0 8-3.581 8-7.987S156.4 344 152 344zM481.2 .9844l-84.65 24.83c-16.91 5.078-28.5 20.65-28.5 38.3v323.9C350.9 366.3 321.5 352 288 352c-53.02 0-96 35.81-96 79.1C192 476.2 234.1 512 288 512s96-35.82 96-80l.0938-269.2l110.7-32.53C504.1 127.2 512 117.9 512 107.2V24.01C512 7.996 496.6-3.523 481.2 .9844zM288 496c-44.11 0-80-28.71-80-64S243.9 368 288 368s80 28.71 80 64S332.1 496 288 496zM496 107.2c0 3.551-2.34 6.676-5.742 7.676l-106.2 31.2l-.0469-81.99c0-10.66 7.078-19.97 17.31-22.97l84.39-24.76C490.9 14.83 496 18.67 496 24.01V107.2z"/></svg>

<svg xmlns="http://www.w3.org/2000/svg" viewBox="0 0 512 512"><!-- Font Awesome Pro 6.0.0-alpha2 by @fontawesome - https://fontawesome.com License - https://fontawesome.com/license (Commercial License) --><path d="M8 232H280C284.406 232 288 228.406 288 224S284.406 216 280 216H8C3.594 216 0 219.594 0 224S3.594 232 8 232ZM8 104H280C284.406 104 288 100.406 288 96S284.406 88 280 88H8C3.594 88 0 91.594 0 96S3.594 104 8 104ZM152 344H8C3.594 344 0 347.594 0 352S3.594 360 8 360H152C156.406 360 160 356.406 160 352S156.406 344 152 344ZM481.242 0.984L396.594 25.812C379.68 30.891 368.094 46.461 368.094 64.117V388.023C350.922 366.344 321.5 352 288 352C234.98 352 192 387.816 192 432C192 476.18 234.98 512 288 512S384 476.18 384 432H384.094V162.758L494.766 130.227C504.984 127.227 512 117.852 512 107.203V24.012C512 7.996 496.613 -3.523 481.242 0.984ZM288 496C243.887 496 208 467.289 208 432S243.887 368 288 368S368 396.711 368 432S332.113 496 288 496ZM496 107.191C496 110.742 493.66 113.867 490.258 114.867L384.094 146.062V64.148C384.094 53.484 391.125 44.094 401.359 41.094L485.75 16.336C490.871 14.832 496 18.672 496 24.012V107.191Z"/></svg>
